!! 00000] TT[WS
!!!OTL: Fanghua ge
!!!ARE: Asia, China, Shanxi Jiaocheng
!! Ethnic Group: Han
!! WI, 303
!!!SCT: J0367
!!!YEM: Copyright 1995, estate of Helmut Schaffrath.
**kern
*ICvox
*Ivox
*M2/4
*k[f#c#g#]
*A:
{4cc#
8cc#
8ee
=1
8cc#
8b
4a
=2
4cc#
8cc#
8b
=3
8cc#
8a
4b}
=4
{8.cc#
16b
8cc#
8b
=5
8f#
8b
4a
=6
8.ff#
16b
8g#
8f#
=7
8e
8c#
4e}
=8
{4f#
4b
=9
8.f#
16b
8g#
8f#
=10
8e
8c#
4e}
==
!!!AGN: Xiaodiao. Xinminge, Xuanchuan
!! Neue Text. Politische Liede
!!!ONB: ESAC (Essen Associative Code) Database: CHINA
!!!AMT: simple duple
!!!AIN: vox
!!!EED: Helmut Schaffrath
!!!EEV: 1.0
*-
